public/avatar/body/12.svg

<svg xmlns:xlink="http://www.w3.org/1999/xlink" height="82" width="84.85" xmlns="http://www.w3.org/2000/svg"><g transform="translate(37.4 42.25)"><use height="38" transform="translate(-11.95 -17.45)" width="32.05" xlink:href="#a"/><use height="21.6" transform="translate(-12.25 -17.95)" width="32.65" xlink:href="#b"/><use height="26.4" transform="translate(-14.9 1.3)" width="39.1" xlink:href="#c"/></g><defs><path d="M27.35 7.4q2.15 4.15 3.55 8.75 1.45 4.7 1.15 9.5-.35 4.95-4.2 8.1-3.8 3.2-8.75 4.05l-2.6.2q-3.6 0-7.05-1.15-4.65-1.6-7.1-5.5Q-.2 27.4.05 23q.2-4.4 2-9.3Q3.85 8.75 7 5.05 10.1 1.3 14.7.1l1.8-.1q1.9.05 3.7.8 4.75 2.05 7.15 6.6" fill="#fff" fill-rule="evenodd" transform="translate(-.05)" id="d"/><path d="M31.9 20.6q-.3-2.25-1-4.45-1.4-4.6-3.55-8.75-2.4-4.55-7.15-6.6-2.65-1.1-5.5-.7Q10.1 1.3 7 5.05q-3.15 3.7-4.95 8.65Q.7 17.3.25 20.6" fill="none" stroke="#000" stroke-linecap="round" stroke-linejoin="round" transform="translate(.25 .5)" id="e"/><use height="38" width="32.05" xlink:href="#d" id="a"/><use height="21.6" width="32.65" xlink:href="#e" id="b"/><g id="c"><path d="M23.7 23.4q-9.3 3.85-19.2 3.8-10.5-.05-18.9-3.75 1.05-7.1 2.1-10.4l1.2-3.3q-.9-1.9-.85-5l.1-1.95q3.8-.95 4.35 4.55 6.35.05 9.55 2.2L4.5 11.3Q6.85 9 9.4 8.1q2.55-.95 6.25-.6.3-6.55 4.05-5.55.55 2.8.25 7.5 1 2 2.3 6.55 1.25 4.5 1.45 7.4m-12.6-.05-.1-.05v.6l.1-.55" fill-rule="evenodd" transform="translate(14.9 -1.3)"/><path d="M23.7 23.4q-9.3 3.85-19.2 3.8-10.5-.05-18.9-3.75 1.05-7.1 2.1-10.4l1.2-3.3q-.9-1.9-.85-5l.1-1.95q3.8-.95 4.35 4.55 6.35.05 9.55 2.2L4.5 11.3Q6.85 9 9.4 8.1q2.55-.95 6.25-.6.3-6.55 4.05-5.55.55 2.8.25 7.5 1 2 2.3 6.55 1.25 4.5 1.45 7.4Z" fill="none" stroke="#000" stroke-linecap="round" stroke-linejoin="round" transform="translate(14.9 -1.3)"/></g></defs></svg>

<?xml version="1.0" encoding="UTF-8" standalone="no"?>
<svg xmlns:xlink="http://www.w3.org/1999/xlink" height="82.0px" width="84.85px" xmlns="http://www.w3.org/2000/svg">
  <g transform="matrix(1.0, 0.0, 0.0, 1.0, 37.4, 42.25)">
    <use height="38.0" transform="matrix(1.0, 0.0, 0.0, 1.0, -11.95, -17.45)" width="32.05" xlink:href="#sprite0"/>
    <use height="21.6" transform="matrix(1.0, 0.0, 0.0, 1.0, -12.25, -17.95)" width="32.65" xlink:href="#sprite1"/>
    <use height="26.4" transform="matrix(1.0, 0.0, 0.0, 1.0, -14.9, 1.3)" width="39.1" xlink:href="#shape2"/>
  </g>
  <defs>
    <g id="sprite0" transform="matrix(1.0, 0.0, 0.0, 1.0, -0.05, 0.0)">
      <use height="38.0" transform="matrix(1.0, 0.0, 0.0, 1.0, 0.05, 0.0)" width="32.05" xlink:href="#shape0"/>
    </g>
    <g id="shape0" transform="matrix(1.0, 0.0, 0.0, 1.0, -0.05, 0.0)">
      <path d="M27.35 7.4 Q29.5 11.55 30.9 16.15 32.35 20.85 32.05 25.65 31.7 30.6 27.85 33.75 24.05 36.95 19.1 37.8 L16.5 38.0 Q12.9 38.0 9.45 36.85 4.8 35.25 2.35 31.35 -0.2 27.4 0.05 23.0 0.25 18.6 2.05 13.7 3.85 8.75 7.0 5.05 10.1 1.3 14.7 0.1 L16.5 0.0 Q18.4 0.05 20.2 0.8 24.95 2.85 27.35 7.4" fill="#ffffff" fill-rule="evenodd" stroke="none"/>
    </g>
    <g id="sprite1" transform="matrix(1.0, 0.0, 0.0, 1.0, 0.25, 0.5)">
      <use height="21.6" transform="matrix(1.0, 0.0, 0.0, 1.0, -0.25, -0.5)" width="32.65" xlink:href="#shape1"/>
    </g>
    <g id="shape1" transform="matrix(1.0, 0.0, 0.0, 1.0, 0.25, 0.5)">
      <path d="M31.9 20.6 Q31.6 18.35 30.9 16.15 29.5 11.55 27.35 7.4 24.95 2.85 20.2 0.8 17.55 -0.3 14.7 0.1 10.1 1.3 7.0 5.05 3.85 8.75 2.05 13.7 0.7 17.3 0.25 20.6" fill="none" stroke="#000000" stroke-linecap="round" stroke-linejoin="round" stroke-width="1.0"/>
    </g>
    <g id="shape2" transform="matrix(1.0, 0.0, 0.0, 1.0, 14.9, -1.3)">
      <path d="M23.7 23.4 Q14.4 27.25 4.5 27.2 -6.0 27.15 -14.4 23.45 -13.35 16.35 -12.3 13.05 L-11.1 9.75 Q-12.0 7.85 -11.95 4.75 L-11.85 2.8 Q-8.05 1.85 -7.5 7.35 -1.15 7.4 2.05 9.55 L4.5 11.3 Q6.85 9.0 9.4 8.1 11.95 7.15 15.65 7.5 15.95 0.95 19.7 1.95 20.25 4.75 19.95 9.45 20.95 11.45 22.25 16.0 23.5 20.5 23.7 23.4 M11.1 23.35 L11.0 23.3 11.0 23.9 11.1 23.35" fill="#000000" fill-rule="evenodd" stroke="none"/>
      <path d="M23.7 23.4 Q14.4 27.25 4.5 27.2 -6.0 27.15 -14.4 23.45 -13.35 16.35 -12.3 13.05 L-11.1 9.75 Q-12.0 7.85 -11.95 4.75 L-11.85 2.8 Q-8.05 1.85 -7.5 7.35 -1.15 7.4 2.05 9.55 L4.5 11.3 Q6.85 9.0 9.4 8.1 11.95 7.15 15.65 7.5 15.95 0.95 19.7 1.95 20.25 4.75 19.95 9.45 20.95 11.45 22.25 16.0 23.5 20.5 23.7 23.4 Z" fill="none" stroke="#000000" stroke-linecap="round" stroke-linejoin="round" stroke-width="1.0"/>
    </g>
  </defs>
</svg>
